img/icons/Footer/Name-Logi.svg

<svg width="100" height="100" viewBox="0 0 100 100" fill="none" xmlns="http://www.w3.org/2000/svg">
<path d="M51.3542 54.9187C39.6459 66.6729 41.0917 78.4479 46.4084 87.3167C34.1938 82.1083 22.9167 61.4583 38.5417 42.7083C55.2084 26.0417 52.0834 18.75 52.0834 12.5C57.2917 21.875 65.4292 40.7917 51.3542 54.9187Z" fill="white"/>
<path d="M48.95 87.5C46.4583 82.0979 43.8583 69.0312 51.4083 61.4583C65.0083 47.4375 62.825 35.152 62.5229 34.4104L62.5 34.375C62.5063 34.375 62.5146 34.3875 62.5229 34.4104C63.0833 35.2937 73.75 52.5979 65.8979 71.875C70.4292 69.2583 72.3563 65.6854 72.9167 64.5833C70.5708 83.5916 58.5792 86.7208 48.95 87.5ZM44.7917 32.2916C38.5417 36.1104 24.4125 45.8333 23.5792 58.3333C22.7458 70.8333 29.8292 76.0416 33.9958 80.2083C31.9125 77.0833 27.7458 69.375 27.7458 59.375C27.7458 49.375 39.2354 36.8062 44.7917 32.2916Z" fill="white"/>
</svg>

<svg width="100" height="100" fill="none" xmlns="http://www.w3.org/2000/svg"><path d="M51.354 54.919c-11.708 11.754-10.262 23.529-4.946 32.398-12.214-5.209-23.491-25.859-7.866-44.609C55.208 26.042 52.083 18.75 52.083 12.5c5.209 9.375 13.346 28.292-.729 42.419Z" fill="#fff"/><path d="M48.95 87.5c-2.492-5.402-5.092-18.469 2.458-26.042 13.6-14.02 11.417-26.306 11.115-27.048l-.023-.035c.006 0 .015.013.023.035.56.884 11.227 18.188 3.375 37.465 4.531-2.617 6.458-6.19 7.019-7.292C70.57 83.592 58.579 86.721 48.95 87.5Zm-4.158-55.208c-6.25 3.818-20.38 13.541-21.213 26.041-.833 12.5 6.25 17.709 10.417 21.875-2.084-3.125-6.25-10.833-6.25-20.833 0-10 11.49-22.569 17.046-27.083Z" fill="#fff"/></svg>
